rospo-icon-theme-classic-common/16x16/apps/microscope.svg

<svg height="16" viewBox="0 0 16 16" width="16" xmlns="http://www.w3.org/2000/svg"><path d="m7.3358324 15.8h4.8515786c.562858 0 1.019179-.25632 1.019179-.819179s-.456321-.818821-1.019179-.818821h-4.5162188l-2.665528-2.986694c-.5717787-.640672-.912704-1.4133166-1.0148564-2.2037111-.1508889-1.1674892.1951191-2.3995675 1.1357312-3.2505289l1.8426266-1.667004c.4173961-.3776137.4210232-1.0342292.0319-1.4409836-.3891228-.4067207-1.0341952-.4210232-1.440984-.0319l-1.7425588 1.6670036c-2.3492087 2.2473588-2.432068 5.987-.1846756 8.336208l2.9665256 3.100956c.1922856.200982.4583256.114654.7364596.114654z" fill="#3f3f3f"/><path d="m-13 13h4v1h-4z" fill="#e4e4e4" transform="scale(-1 1)"/><path d="m7.0172271 8.4305029c.035756-.1353164.1245736-.251126.2469708-.3219476l1.79078-1.0358892c.2548216-.1474072.5829031-.063441.7326341.1876152l1.138614 1.9095404c.14966.2510904.06441.5741272-.190483.7216048l-1.7907799 1.0358895c-.1103716.06383-.23441.08428-.3517756.0666-.1536924-.0232-.2959656-.111839-.380858-.254219l-1.138614-1.9095369c-.0719044-.1205544-.0922088-.2643412-.0564884-.3996572z" fill="#4f4f4f"/><path d="m3.055425 2.1878021c.1142888-.46654.3928936-.857935.7845268-1.1020684l1.3430644-.83726489c.3360976-.20948346.7330388-.29040346 1.1177384-.22786475.5083432.08264542.9491748.39977575 1.2094344.87011879l3.421257 6.18333675c.06688.1208166.08576.2648391.05252.40041-.03321.1355704-.115781.2515983-.229605.3225529l-3.4171144 2.1301537c-.1026108.0639475-.2179276.0844418-.3270404.0667292-.142886-.0232417-.2751552-.1120483-.3540792-.2546971l-3.4212572-6.1833021c-.2300036-.4157275-.2937332-.9015641-.1794448-1.3681041z" fill="#ff9b32"/><path d="m3.0513068 14h4.3458916 1.6622908 3.8892038c.580602 0 1.051307.447733 1.051307 1s-.470705 1-1.051307 1h-3.8892038-2.456308-3.5518744c-.5806016 0-1.0513068-.447733-1.0513068-1 0-.5523.47067-1 1.0513068-1z" fill="#ff9b32"/><path d="m4 7c1.1028037 0 2-.8971963 2-2s-.8971963-2-2-2-2 .8971963-2 2 .8971963 2 2 2z" fill="#4f4f4f"/><circle cx="4" cy="5" fill="#e4e4e4" r="1"/></svg>

<svg xmlns="http://www.w3.org/2000/svg" width="16" height="16" x="0" y="0" version="1.1" viewBox="0 0 16 16" xml:space="preserve">
 <path style="fill:#3f3f3f" d="m 7.3358324,15.8 4.8515786,0 c 0.562858,0 1.019179,-0.25632 1.019179,-0.819179 0,-0.562859 -0.456321,-0.818821 -1.019179,-0.818821 l -4.5162188,0 -2.665528,-2.986694 C 4.4338855,10.534634 4.0929602,9.7619894 3.9908078,8.9715949 3.8399189,7.8041057 4.1859269,6.5720274 5.126539,5.721066 L 6.9691656,4.054062 C 7.3865617,3.6764483 7.3901888,3.0198328 7.0010656,2.6130784 6.6119428,2.2063577 5.9668704,2.1920552 5.5600816,2.5811784 L 3.8175228,4.248182 c -2.3492087,2.2473588 -2.432068,5.987 -0.1846756,8.336208 l 2.9665256,3.100956 C 6.7916584,15.886328 7.0576984,15.8 7.3358324,15.8 Z"/>
 <rect width="4" height="1" x="-13" y="13" transform="scale(-1,1)" style="fill:#cccccc"/>
 <path style="fill:#4f4f4f" d="M 7.0172271,8.4305029 C 7.0529831,8.2951865 7.1418007,8.1793769 7.2641979,8.1085553 l 1.79078,-1.0358892 C 9.3097995,6.9252589 9.637881,7.0092251 9.787612,7.2602813 l 1.138614,1.9095404 c 0.14966,0.2510904 0.06441,0.5741272 -0.190483,0.7216048 L 8.9449631,10.927316 c -0.1103716,0.06383 -0.23441,0.08428 -0.3517756,0.0666 -0.1536924,-0.0232 -0.2959656,-0.111839 -0.380858,-0.254219 L 7.0737155,8.8301601 C 7.0018111,8.7096057 6.9815067,8.5658189 7.0172271,8.4305029 Z"/>
 <path style="fill:#ff9b32" d="M 3.055425,2.1878021 C 3.1697138,1.7212621 3.4483186,1.3298671 3.8399518,1.0857337 L 5.1830162,0.24846881 C 5.5191138,0.03898535 5.916055,-0.04193465 6.3007546,0.02060406 6.8090978,0.10324948 7.2499294,0.42037981 7.510189,0.89072285 l 3.421257,6.18333675 c 0.06688,0.1208166 0.08576,0.2648391 0.05252,0.40041 -0.03321,0.1355704 -0.115781,0.2515983 -0.229605,0.3225529 L 7.3372466,9.9271762 C 7.2346358,9.9911237 7.119319,10.011618 7.0102062,9.9939054 6.8673202,9.9706637 6.735051,9.8818571 6.656127,9.7392083 L 3.2348698,3.5559062 C 3.0048662,3.1401787 2.9411366,2.6543421 3.055425,2.1878021 Z"/>
 <path d="m 3.0513068,14 4.3458916,0 1.6622908,0 3.8892038,0 C 13.529295,14 14,14.447733 14,15 c 0,0.552267 -0.470705,1 -1.051307,1 l -3.8892038,0 -2.456308,0 -3.5518744,0 C 2.4707052,16 2,15.552267 2,15 2,14.4477 2.47067,14 3.0513068,14 Z" style="fill:#ff9b32"/>
 <path style="fill:#4f4f4f" d="M 4,7 C 5.1028037,7 6,6.1028037 6,5 6,3.8971963 5.1028037,3 4,3 2.8971963,3 2,3.8971963 2,5 2,6.1028037 2.8971963,7 4,7 Z"/>
 <circle style="fill:#cccccc" cx="4" cy="5" r="1"/>
</svg>
